windows-logo.svg

<?xml version="1.0" standalone="no"?>
<!DOCTYPE svg PUBLIC "-//W3C//DTD SVG 20010904//EN"
 "http://www.w3.org/TR/2001/REC-SVG-20010904/DTD/svg10.dtd">
<svg version="1.0" xmlns="http://www.w3.org/2000/svg"
 width="60.000000pt" height="48.000000pt" viewBox="0 0 60.000000 48.000000"
 preserveAspectRatio="xMidYMid meet">
<metadata>
Created by potrace 1.16, written by Peter Selinger 2001-2019
</metadata>
<g transform="translate(0.000000,48.000000) scale(0.100000,-0.100000)"
fill="#000000" stroke="none">
<path d="M0 240 l0 -240 300 0 300 0 0 240 0 240 -300 0 -300 0 0 -240z m520
120 l0 -100 -120 0 -120 0 0 85 c0 61 4 85 13 86 6 0 48 6 92 14 44 7 92 13
108 14 l27 1 0 -100z m-270 -20 l0 -80 -74 0 c-41 0 -81 -3 -90 -6 -14 -5 -16
5 -16 69 l0 76 48 6 c26 4 52 8 57 10 6 2 25 4 43 4 l32 1 0 -80z m0 -196 l0
-87 -37 6 c-21 3 -62 9 -90 13 l-53 7 0 73 0 74 90 0 90 0 0 -86z m270 -20 c0
-96 -2 -105 -17 -100 -10 2 -64 10 -120 17 l-103 12 0 89 0 88 120 0 120 0 0
-106z"/>
</g>
</svg>

<?xml version="1.0" encoding="UTF-8" standalone="no"?>
<svg
   xmlns:osb="http://www.openswatchbook.org/uri/2009/osb"
   xmlns:dc="http://purl.org/dc/elements/1.1/"
   xmlns:cc="http://creativecommons.org/ns#"
   xmlns:rdf="http://www.w3.org/1999/02/22-rdf-syntax-ns#"
   xmlns:svg="http://www.w3.org/2000/svg"
   xmlns="http://www.w3.org/2000/svg"
   xmlns:xlink="http://www.w3.org/1999/xlink"
   xmlns:sodipodi="http://sodipodi.sourceforge.net/DTD/sodipodi-0.dtd"
   xmlns:inkscape="http://www.inkscape.org/namespaces/inkscape"
   inkscape:export-ydpi="96.000008"
   inkscape:export-xdpi="96.000008"
   width="512"
   height="512"
   id="svg11300"
   sodipodi:version="0.32"
   inkscape:version="1.0.1 (1.0.1+r73)"
   sodipodi:docname="windows-logo.svg"
   inkscape:output_extension="org.inkscape.output.svg.inkscape"
   version="1.0"
   style="display:inline;enable-background:new"
   inkscape:export-filename="suru-icon-template.png">
  <title
     id="title3004">Suru Icon Template</title>
  <sodipodi:namedview
     stroke="#ef2929"
     fill="#f57900"
     id="base"
     pagecolor="#ebebeb"
     bordercolor="#666666"
     borderopacity="0.25490196"
     inkscape:pageopacity="1"
     inkscape:pageshadow="2"
     inkscape:zoom="1"
     inkscape:cx="-129.16567"
     inkscape:cy="291.12453"
     inkscape:current-layer="g3055"
     showgrid="false"
     inkscape:grid-bbox="true"
     inkscape:document-units="px"
     inkscape:showpageshadow="false"
     inkscape:window-width="1397"
     inkscape:window-height="1328"
     inkscape:window-x="0"
     inkscape:window-y="27"
     width="400px"
     height="300px"
     inkscape:snap-nodes="true"
     inkscape:snap-bbox="true"
     gridtolerance="10000"
     inkscape:object-nodes="true"
     inkscape:snap-grids="true"
     showguides="true"
     inkscape:guide-bbox="true"
     inkscape:window-maximized="0"
     inkscape:bbox-nodes="true"
     inkscape:bbox-paths="true"
     inkscape:snap-bbox-midpoints="true"
     inkscape:snap-bbox-edge-midpoints="true"
     inkscape:snap-global="true"
     inkscape:document-rotation="0">
    <inkscape:grid
       spacingy="1px"
       spacingx="1px"
       id="grid5883"
       type="xygrid"
       enabled="true"
       visible="true"
       empspacing="4"
       snapvisiblegridlinesonly="true" />
    <sodipodi:guide
       position="256,256"
       orientation="-0.70710678,0.70710678"
       id="guide10813"
       inkscape:label=""
       inkscape:color="rgb(0,0,255)" />
    <sodipodi:guide
       position="256,256"
       orientation="0.70710678,0.70710678"
       id="guide10815"
       inkscape:label=""
       inkscape:color="rgb(0,0,255)" />
    <sodipodi:guide
       position="104,408"
       orientation="1,0"
       id="guide10817" />
    <sodipodi:guide
       position="120,408"
       orientation="1,0"
       id="guide10819" />
    <sodipodi:guide
       position="136,408"
       orientation="1,0"
       id="guide10821" />
    <sodipodi:guide
       position="104,392"
       orientation="0,1"
       id="guide10823" />
    <sodipodi:guide
       position="104,408"
       orientation="0,1"
       id="guide10825" />
    <sodipodi:guide
       position="104,376"
       orientation="0,1"
       id="guide10827" />
    <sodipodi:guide
       position="408,408"
       orientation="1,0"
       id="guide10829" />
    <sodipodi:guide
       position="376,408"
       orientation="1,0"
       id="guide10831" />
    <sodipodi:guide
       position="392,408"
       orientation="1,0"
       id="guide10833" />
    <sodipodi:guide
       position="104,104"
       orientation="0,1"
       id="guide10837" />
    <sodipodi:guide
       position="104,120"
       orientation="0,1"
       id="guide10839" />
    <sodipodi:guide
       position="104,136"
       orientation="0,1"
       id="guide10841" />
    <sodipodi:guide
       position="0,496"
       orientation="0,1"
       id="guide10843"
       inkscape:label=""
       inkscape:color="rgb(255,0,0)" />
    <sodipodi:guide
       position="0,16"
       orientation="0,1"
       id="guide10845"
       inkscape:label=""
       inkscape:color="rgb(255,0,0)" />
  </sodipodi:namedview>
  <defs
     id="defs3">
    <linearGradient
       id="linearGradient5460"
       osb:paint="gradient">
      <stop
         style="stop-color:#e6e6e6;stop-opacity:1"
         offset="0"
         id="stop5462" />
      <stop
         style="stop-color:#ffffff;stop-opacity:1"
         offset="1"
         id="stop5464" />
    </linearGradient>
    <linearGradient
       id="linearGradient5476"
       osb:paint="solid">
      <stop
         style="stop-color:#772953;stop-opacity:1;"
         offset="0"
         id="stop5478" />
    </linearGradient>
    <linearGradient
       id="linearGradient3045">
      <stop
         id="stop3047"
         offset="0"
         style="stop-color:#847784;stop-opacity:0.99607843" />
      <stop
         id="stop3049"
         offset="1"
         style="stop-color:#695f69;stop-opacity:1" />
    </linearGradient>
    <linearGradient
       id="linearGradient4213">
      <stop
         style="stop-color:#b1d7f3;stop-opacity:1"
         offset="0"
         id="stop4215" />
      <stop
         style="stop-color:#8fafda;stop-opacity:1"
         offset="1"
         id="stop4217" />
    </linearGradient>
    <filter
       id="filter4154"
       color-interpolation-filters="sRGB">
      <feComposite
         operator="arithmetic"
         k4="0"
         result="composite1"
         k1="0"
         k2="1"
         k3="0"
         in2="SourceGraphic"
         id="feComposite4156" />
      <feColorMatrix
         in="composite1"
         result="colormatrix1"
         values="0"
         type="saturate"
         id="feColorMatrix4158" />
      <feFlood
         flood-color="rgb(72,59,72)"
         result="flood1"
         id="feFlood4160" />
      <feBlend
         in="flood1"
         in2="colormatrix1"
         mode="multiply"
         result="blend1"
         id="feBlend4162" />
      <feBlend
         result="blend2"
         in2="blend1"
         mode="screen"
         id="feBlend4164" />
      <feColorMatrix
         in="blend2"
         result="colormatrix2"
         values="1"
         type="saturate"
         id="feColorMatrix4166" />
      <feComposite
         in="colormatrix2"
         in2="SourceGraphic"
         result="composite2"
         operator="in"
         id="feComposite4168" />
    </filter>
    <clipPath
       id="clipPath3062"
       clipPathUnits="userSpaceOnUse">
      <rect
         y="-194.96773"
         x="34.167744"
         height="445.93549"
         width="475.66452"
         id="rect3064"
         style="color:#000000;fill:url(#linearGradient3066);fill-opacity:1;fill-rule:nonzero;stroke:none;stroke-width:40;marker:none;visibility:visible;display:inline;overflow:visible;enable-background:new" />
    </clipPath>
    <linearGradient
       y2="288"
       x2="256"
       y1="50"
       x1="256"
       gradientTransform="matrix(1.8580645,0,0,1.8736786,4.4387126,-288.65166)"
       gradientUnits="userSpaceOnUse"
       id="linearGradient3066"
       xlink:href="#linearGradient3045"
       inkscape:collect="always" />
  </defs>
  <metadata
     id="metadata4">
    <rdf:RDF>
      <cc:Work
         rdf:about="">
        <dc:format>image/svg+xml</dc:format>
        <dc:type
           rdf:resource="http://purl.org/dc/dcmitype/StillImage" />
        <dc:creator>
          <cc:Agent>
            <dc:title>Sam Hewitt</dc:title>
          </cc:Agent>
        </dc:creator>
        <dc:source />
        <cc:license
           rdf:resource="http://creativecommons.org/licenses/by-sa/3.0/" />
        <dc:title>Suru Icon Template</dc:title>
        <dc:subject>
          <rdf:Bag />
        </dc:subject>
        <dc:date />
        <dc:rights>
          <cc:Agent>
            <dc:title />
          </cc:Agent>
        </dc:rights>
        <dc:publisher>
          <cc:Agent>
            <dc:title />
          </cc:Agent>
        </dc:publisher>
        <dc:identifier />
        <dc:relation />
        <dc:language />
        <dc:coverage />
        <dc:description />
        <dc:contributor>
          <cc:Agent>
            <dc:title />
          </cc:Agent>
        </dc:contributor>
      </cc:Work>
      <cc:Work
         rdf:about="">
        <dc:format>image/svg+xml</dc:format>
        <dc:type
           rdf:resource="http://purl.org/dc/dcmitype/StillImage" />
      </cc:Work>
      <cc:License
         rdf:about="http://creativecommons.org/licenses/by-sa/3.0/">
        <cc:permits
           rdf:resource="http://creativecommons.org/ns#Reproduction" />
        <cc:permits
           rdf:resource="http://creativecommons.org/ns#Distribution" />
        <cc:requires
           rdf:resource="http://creativecommons.org/ns#Notice" />
        <cc:requires
           rdf:resource="http://creativecommons.org/ns#Attribution" />
        <cc:permits
           rdf:resource="http://creativecommons.org/ns#DerivativeWorks" />
        <cc:requires
           rdf:resource="http://creativecommons.org/ns#ShareAlike" />
      </cc:License>
    </rdf:RDF>
  </metadata>
  <g
     style="display:inline"
     inkscape:groupmode="layer"
     inkscape:label="Icon"
     id="layer1"
     transform="translate(0,212)">
    <g
       style="display:inline"
       inkscape:label="Background"
       id="g3055"
       inkscape:groupmode="layer">
      <path
         inkscape:connector-curvature="0"
         style="color:#000000;display:inline;overflow:visible;visibility:visible;fill:none;fill-opacity:1;fill-rule:nonzero;stroke:none;stroke-width:1;marker:none;enable-background:accumulate"
         d="M 0,-212 0,-28.10156 0,116.10156 0,300 512,300 512,116.10156 512,-28.10156 512,-212 0,-212 Z"
         id="rect4158" />
      <g
         transform="matrix(0.66666667,0,0,-0.72916667,45.333332,227.41667)"
         fill="#000000"
         stroke="none"
         id="g68"
         style="fill:#e7e7df;fill-opacity:1">
        <path
           d="M 0,240 V 0 H 300 600 V 240 480 H 300 0 Z M 520,360 V 260 H 400 280 v 85 c 0,61 4,85 13,86 6,0 48,6 92,14 44,7 92,13 108,14 l 27,1 z M 250,340 v -80 h -74 c -41,0 -81,-3 -90,-6 -14,-5 -16,5 -16,69 v 76 l 48,6 c 26,4 52,8 57,10 6,2 25,4 43,4 l 32,1 z m 0,-196 V 57 l -37,6 c -21,3 -62,9 -90,13 l -53,7 v 73 74 h 90 90 z M 520,124 C 520,28 518,19 503,24 493,26 439,34 383,41 L 280,53 v 89 88 h 120 120 z"
           id="path66"
           style="fill:#e7e7df;fill-opacity:1" />
      </g>
    </g>
    <g
       inkscape:groupmode="layer"
       id="layer5"
       inkscape:label="Pictogram"
       style="display:inline" />
  </g>
</svg>
